X:1
T:Jim Jones
M:6/8
L:1/4
K:C
 A,/2| C C/2 G G/2| C E/2 G E/2| D C/2 A, G,/2| A,3/2- A, E/2| A A/2 c A/2|\
 A- A/2 G A/2| F F/2 E D/2| E3/2- E G/2| A A/2 c A/2| A- A/2 G A/2|\
 F F/2 E D/2| A3/2- A E/2| D C/2 D E/2| A G/2 E C/2| D C/2 A, G,/2|\
 A,3/2- A,||
